icons/khan_academy-logo.svg

<?xml version="1.0" encoding="UTF-8"?>
<svg width="512px" height="82px" viewBox="0 0 512 82" version="1.1" xmlns="http://www.w3.org/2000/svg" xmlns:xlink="http://www.w3.org/1999/xlink" preserveAspectRatio="xMidYMid">
    <g>
        <path d="M511.768528,33.9846124 C512.050051,34.4068966 512.075993,34.9499426 511.836007,35.3971403 L493.55615,79.4442847 C493.322754,79.9872138 492.80096,80.3502015 492.210752,80.3802134 L485.776242,80.3802134 C485.260719,80.4228781 484.763501,80.1785918 484.482231,79.7444582 C484.200961,79.3103246 484.181216,78.7566891 484.430845,78.3036216 L490.66062,62.5975681 L480.862617,35.3971403 C480.622631,34.9499426 480.648573,34.4068966 480.930096,33.9846124 C481.211619,33.5623282 481.702914,33.3295176 482.208014,33.379044 L488.642524,33.379044 C489.225789,33.327427 489.764407,33.6946667 489.929426,34.2564772 L495.486503,52.7703168 L495.632742,52.7703168 L502.681455,34.2564772 C503.149419,33.4375396 503.675879,33.379044 504.641055,33.379044 L510.49061,33.379044 C510.99571,33.3295176 511.487005,33.5623282 511.768528,33.9846124 Z M311.020806,32.7060955 C315.512106,32.6807266 319.788595,34.6265289 322.719914,38.0294398 C323.392613,38.7021385 323.070888,39.5795717 322.398189,40.2522704 L319.473412,43.3525342 C318.800713,44.0837285 318.069519,43.7327553 317.455316,43.1477998 C315.8702,41.4200578 313.628706,40.4427237 311.284036,40.4570048 C309.049933,40.4384839 306.906642,41.3400712 305.357559,42.9500103 C303.808477,44.5599493 302.990107,46.7363743 303.09466,48.9681064 C302.956982,51.2066598 303.753428,53.4021291 305.294352,55.0317393 C306.835276,56.6613495 308.982791,57.5792778 311.22554,57.5669513 C313.838386,57.5372822 316.281424,56.2669026 317.806289,54.144962 C318.305152,53.5979286 319.134131,53.5100066 319.736642,53.9402276 L322.661419,56.4847838 C323.392613,57.1574825 323.743586,57.9179246 323.187879,58.7076144 C320.554525,62.9223697 315.870349,65.4094441 310.903815,65.2298676 C304.945431,65.4829579 299.32808,62.4483917 296.27342,57.3263369 C293.21876,52.204282 293.21876,45.8196742 296.27342,40.6976193 C299.32808,35.5755644 304.945431,32.5409982 310.903815,32.7940886 L311.020806,32.7060955 Z M341.760214,32.7063453 C351.411979,32.7063453 353.459323,37.736962 353.459323,46.2188159 L353.459323,62.9192936 C353.459323,63.7318135 352.809298,64.3949982 351.996934,64.41093 L349.715608,64.41093 C349.1599,64.41093 348.779679,64.2061956 348.37021,63.3287624 L347.492777,61.2521706 C344.891468,63.7904445 341.387462,65.1899422 337.753269,65.1421242 C334.899607,65.3195518 332.10889,64.2527777 330.101218,62.2170657 C328.093546,60.1813537 327.065579,57.3761103 327.282567,54.5251831 C327.428806,49.026602 331.932963,44.7856751 339.771365,44.7856751 C341.750976,44.8237259 343.717267,45.1186695 345.62092,45.6631082 C345.62092,41.714659 344.597248,39.8135538 341.321497,39.8135538 C338.363221,39.8638291 335.419968,40.246452 332.547166,40.9542169 C331.552742,41.3051902 330.938538,40.5739959 330.821547,39.6380672 L330.148848,36.1283346 C330.002901,35.7488691 330.028625,35.3247683 330.219367,34.9657248 C330.410109,34.6066812 330.747134,34.3479594 331.143273,34.2564772 C334.595158,33.2587349 338.167158,32.7372031 341.760214,32.7063453 Z M185.694103,32.7063453 C195.375116,32.7063453 197.393212,37.736962 197.393212,46.2188159 L197.393212,62.9192936 C197.393212,63.7431016 196.725384,64.41093 195.901576,64.41093 L193.62025,64.41093 C193.09379,64.41093 192.684321,64.2061956 192.274852,63.3287624 L191.397419,61.2521706 C188.79971,63.7959765 185.293305,65.1964327 181.657911,65.1421242 C178.804248,65.3195518 176.013532,64.2527777 174.00586,62.2170657 C171.998188,60.1813537 170.970221,57.3761103 171.187209,54.5251831 C171.362695,49.026602 175.866852,44.7856751 183.734503,44.7856751 C185.71445,44.8197067 187.681262,45.1147284 189.584057,45.6631082 C189.584057,41.714659 188.589633,39.8135538 185.284635,39.8135538 C182.32634,39.8635821 179.38306,40.2462085 176.510303,40.9542169 C175.486631,41.3051902 174.901676,40.5739959 174.755437,39.6380672 L174.082738,36.1283346 C173.93679,35.7488691 173.962514,35.3247683 174.153256,34.9657248 C174.343998,34.6066812 174.681024,34.3479594 175.077162,34.2564772 C178.529047,33.2587349 182.101048,32.7372031 185.694103,32.7063453 Z M421.329407,36.8110411 C424.025751,39.5295316 425.480598,43.2403192 425.350346,47.0670013 C425.350346,47.5349656 425.350346,48.6171332 425.204107,49.0850975 C425.132578,49.8511255 424.510027,50.4487742 423.741718,50.4889906 L403.853234,50.4889906 C403.921828,52.4674444 404.774181,54.337459 406.222503,55.687032 C407.670826,57.036605 409.596278,57.7550009 411.574645,57.6839424 C413.987845,57.7323844 416.340138,56.9241076 418.213889,55.4026162 C418.974332,54.788413 419.764021,54.7299175 420.231986,55.4026162 L422.864285,58.8831011 C423.145929,59.154222 423.292471,59.5365161 423.264217,59.9264283 C423.235962,60.3163405 423.035835,60.6735136 422.718046,60.9011973 C419.505286,63.6630792 415.401811,65.1694181 411.165176,65.1421242 C406.901577,65.1447938 402.8201,63.4139901 399.858135,60.3472253 C396.89617,57.2804606 395.308269,53.1412934 395.459123,48.8803631 C395.332836,44.6445127 396.923601,40.5373759 399.870152,37.4916884 C402.816703,34.4460008 406.868971,32.7202461 411.106681,32.7063453 C414.9343,32.6073991 418.633063,34.0925506 421.329407,36.8110411 Z M388.615144,17.4097606 C389.421428,17.4246773 390.075903,18.0663194 390.106781,18.8721492 L390.106781,62.9192936 C390.106781,63.7431016 389.438952,64.41093 388.615144,64.41093 L386.129084,64.41093 C385.397889,64.41093 384.929925,63.7967267 384.666695,62.9192936 L383.847758,60.4917285 C381.316551,63.4467109 377.618904,65.1459188 373.728029,65.1421306 C365.246175,65.1421306 358.87016,58.2981456 358.87016,48.8803631 C358.609795,44.6538564 360.119877,40.5096058 363.038294,37.4413835 C365.956712,34.3731613 370.020249,32.6576949 374.254488,32.7063453 C376.795491,32.7098202 379.317436,33.1449792 381.71267,33.9932472 L381.71267,18.8721492 C381.768825,18.088932 382.391842,17.4659151 383.175059,17.4097606 L388.615144,17.4097606 Z M103.975829,17.5559995 C104.864249,17.5559995 105.584456,18.2762065 105.584456,19.1646269 L105.584456,37.2982455 L122.518916,18.2286982 C122.8156,17.7962706 123.310804,17.543166 123.835066,17.5559995 L130.562053,17.5559995 C131.141659,17.5298056 131.677667,17.8628561 131.910901,18.39411 C132.144134,18.9253639 132.026538,19.5453629 131.614973,19.9543168 L114.06631,39.6965628 L132.872627,62.1880993 C133.201921,62.6407904 133.250035,63.2397422 132.997226,63.7391935 C132.744418,64.2386447 132.233251,64.5545042 131.673469,64.5571688 L124.361526,64.5571688 C123.904099,64.5832359 123.457261,64.4130119 123.133119,64.0892045 L105.584456,42.4458533 L105.584456,62.9192936 C105.584599,63.8125671 104.86896,64.5412175 103.975829,64.5571688 L98.1262745,64.5571688 C97.6945238,64.5572402 97.2808675,64.3837513 96.9783363,64.0757195 C96.6758051,63.7676878 96.509797,63.3509729 96.5173808,62.9192936 L96.5173808,19.0183881 C96.5796766,18.1807229 97.2865055,17.5381512 98.1262745,17.5559995 L103.975829,17.5559995 Z M271.887287,16.8248052 C272.376252,16.804891 272.823436,17.0990914 272.998702,17.5559995 L293.676877,62.743807 C293.879049,63.1280764 293.857699,63.5916163 293.621061,63.955675 C293.384422,64.3197337 292.969468,64.5274307 292.536214,64.4986733 L286.68666,64.4986733 C285.802056,64.5532413 284.993949,63.9984211 284.727059,63.1532758 L281.451308,55.8998283 L261.504328,55.8998283 L258.19933,63.1532758 C257.910927,63.9692602 257.134348,64.5105123 256.268977,64.4986733 L250.419422,64.4986733 C249.950328,64.5780712 249.479871,64.3654845 249.229449,63.9609566 C248.979027,63.5564287 248.998522,63.0405383 249.278759,62.6560636 L270.073925,17.5559995 C270.244457,17.1329528 270.643179,16.851217 271.091287,16.8254115 L271.887287,16.8248052 Z M144.717975,17.4097606 C145.524258,17.4246773 146.178733,18.0663194 146.209611,18.8721492 L146.209611,35.3386447 C148.439355,33.5394623 151.243206,32.6048454 154.10651,32.7063453 C163.992257,32.7063453 166.683052,39.5503239 166.683052,47.3302312 L166.683052,62.8900458 C166.652983,63.7010726 166.002442,64.3516136 165.191415,64.3816822 L159.75133,64.3816822 C158.938966,64.3657504 158.288785,63.7025657 158.288941,62.8900458 L158.288941,47.2717357 C158.288941,42.9723132 156.32934,40.3692615 152.644121,40.3692615 C149.435957,40.3051596 146.679988,42.6352055 146.209611,45.8093471 L146.209611,62.9192936 C146.209611,63.7967267 145.800143,64.41093 144.571736,64.41093 L139.277889,64.41093 C138.47206,64.3800517 137.830418,63.7255768 137.815501,62.9192936 L137.815501,18.8721492 C137.871655,18.088932 138.494672,17.4659151 139.277889,17.4097606 L144.717975,17.4097606 Z M455.35856,37.3859888 C457.847341,34.433773 461.500179,32.7141622 465.361298,32.6770975 C475.276292,32.6770975 477.645362,38.9946162 477.645362,47.0377535 L477.645362,62.8900458 C477.637679,63.2934337 477.470027,63.6772388 477.179305,63.9569908 C476.888582,64.2367427 476.498615,64.3895142 476.09523,64.3819691 L470.71364,64.3819691 C469.901276,64.3657504 469.251095,63.7025657 469.251251,62.8900458 L469.251251,46.8037713 C469.251251,42.7968266 467.759615,40.310766 463.869661,40.310766 C461.439197,40.0560101 459.106493,41.3389977 458.020107,43.5280209 L458.020107,62.8315503 C458.00519,63.6378335 457.363548,64.2923084 456.557718,64.3231866 L451.410111,64.3231866 C451.012093,64.3312299 450.627998,64.17666 450.346499,63.8951614 C450.065001,63.6136629 449.910431,63.2295681 449.918474,62.8315503 L449.918474,46.8037713 C449.918474,42.7968266 448.777811,40.310766 444.829362,40.310766 C442.000681,40.3799639 439.585289,42.3726624 438.979807,45.1366483 L438.979807,62.860798 C438.964891,63.6670813 438.323249,64.3215562 437.517419,64.3524344 L432.077333,64.3524344 C431.271503,64.3215562 430.629861,63.6670813 430.614945,62.860798 L430.322467,34.8706804 C430.322467,34.0581605 430.972492,33.3949758 431.784856,33.379044 L434.212421,33.379044 C434.791604,33.3176946 435.327709,33.6917211 435.470075,34.2564772 L436.610738,37.1812544 C438.881402,34.268177 442.394354,32.5984405 446.087016,32.6770975 C449.789824,32.5105276 453.308812,34.2977738 455.35856,37.3859888 Z M221.083907,32.7355931 C230.940406,32.7355931 233.484963,39.3748373 233.484963,46.8915146 L233.484963,62.9485414 C233.427378,63.7099053 232.814211,64.3105587 232.051822,64.3524344 L226.494745,64.3524344 C225.670937,64.3524344 225.003109,63.6846061 225.003109,62.860798 L225.003109,46.8037713 C225.003109,42.7968266 223.394481,40.310766 219.650766,40.310766 C216.579388,40.2270257 213.828637,42.2003904 212.923779,45.1366483 L212.923779,62.860798 C212.923779,64.0014611 212.455815,64.3524344 210.993426,64.3524344 L206.021305,64.3524344 C205.210278,64.3223658 204.559737,63.6718248 204.529668,62.860798 L204.529668,34.8706804 C204.529668,34.0468724 205.197497,33.379044 206.021305,33.379044 L208.653604,33.379044 C209.253973,33.3334783 209.798877,33.7297724 209.940506,34.3149727 L211.081169,37.2397499 C213.539508,34.2723452 217.232544,32.6093992 221.083907,32.7355931 Z M340.999772,50.1087695 C337.431544,50.1087695 335.501191,51.7758925 335.501191,54.5251831 C335.407883,55.7281061 335.853705,56.9103293 336.718079,57.7521056 C337.582454,58.5938819 338.77607,59.0082361 339.9761,58.8831011 C342.283288,58.817583 344.394177,57.5687324 345.562424,55.5781029 L345.562424,51.0446982 C344.114512,50.4466675 342.566194,50.129064 340.999772,50.1087695 Z M184.933661,50.1087695 C181.365433,50.1087695 179.43508,51.7758925 179.43508,54.5251831 C179.351022,55.7309484 179.80398,56.9122499 180.672639,57.7527061 C181.541298,58.5931623 182.736902,59.0068967 183.939237,58.8831011 C186.239129,58.8187417 188.34175,57.5682355 189.496314,55.5781029 L189.496314,51.0446982 C188.048401,50.4466675 186.500084,50.129064 184.933661,50.1087695 Z M375.248913,40.3692615 C373.068455,40.3937507 370.996749,41.3254345 369.53158,42.9404503 C368.066412,44.5554661 367.340223,46.7078247 367.527501,48.8803631 C367.527501,53.2675289 370.013561,57.479208 374.868692,57.479208 C377.822185,57.6089752 380.547582,55.8968673 381.71267,53.1797856 L381.71267,42.1241278 C379.76345,40.9488787 377.524847,40.3411134 375.248913,40.3692615 Z M271.565561,33.5837784 L271.360827,33.5837784 L264.780078,48.3539032 L278.263301,48.3539032 L271.565561,33.5837784 Z M404.525932,44.9904095 L416.956235,44.9904095 C416.783149,41.9139387 414.186388,39.537903 411.106681,39.6380672 C407.840258,39.3929753 404.951428,41.7425572 404.525932,44.9904095 Z" fill="#000000"></path>
        <path d="M4.82588235,16.971044 C1.99236706,18.7644511 0.19603003,21.8127807 0,25.1604201 L0,56.7480137 C0.19603003,60.0956532 1.99236706,63.1439827 4.82588235,64.9373898 L33.1669733,80.7896822 C36.2113264,82.2813511 39.7743848,82.2813511 42.818738,80.7896822 L71.1890766,64.9373898 C74.0225919,63.1439827 75.818929,60.0956532 76.014959,56.7480137 L76.014959,25.1604201 C75.818929,21.8127807 74.0225919,18.7644511 71.1890766,16.971044 L42.8479857,1.1187517 C39.8036326,-0.372917233 36.2405742,-0.372917233 33.196221,1.1187517 L4.82588235,16.971044 Z" fill="#14BF96"></path>
        <path d="M67.1236364,33.1158141 C51.3883351,33.1158141 39.6307308,46.1603203 39.6307308,62.1588515 L39.6307308,62.8315503 L36.4719715,62.8315503 L36.4719715,62.1588515 C36.4719715,46.1603203 24.7728627,33.1743096 8.92016252,33.1158141 C8.92016252,34.1102383 8.92016252,35.1339103 8.92016252,36.0405913 C8.85660895,48.1439495 16.320172,59.0127633 27.6391444,63.2995146 C31.0026871,64.5328613 34.556562,65.1664212 38.1390945,65.171372 C41.7501994,65.1664412 45.3328925,64.5330368 48.7267879,63.2995146 C60.0287638,58.996228 67.476184,48.1339501 67.4164748,36.0405913 C67.2698752,35.1046626 67.2113797,34.1102383 67.1236364,33.1158141 Z" fill="#FFFFFF"></path>
        <circle fill="#FFFFFF" cx="38.0221034" cy="25.569889" r="8.77433155"></circle>
    </g>
</svg>

<svg xmlns="http://www.w3.org/2000/svg" viewBox="0 0 511.999 81.908">
  <path d="M511.769 33.985c.281.422.307.965.067 1.412l-18.28 44.047a1.55 1.55 0 0 1-1.345.936h-6.435a1.404 1.404 0 0 1-1.345-2.076l6.23-15.706-9.798-27.2a1.375 1.375 0 0 1 1.345-2.019h6.435a1.228 1.228 0 0 1 1.286.877l5.558 18.514h.146l7.048-18.514c.468-.818.995-.877 1.96-.877h5.85c.505-.05.996.183 1.278.606zM311.02 32.706a15.327 15.327 0 0 1 11.699 5.323c.673.673.35 1.55-.322 2.223l-2.925 3.1c-.672.732-1.403.38-2.018-.204a8.306 8.306 0 0 0-6.171-2.691 8.13 8.13 0 0 0-8.19 8.511 8.102 8.102 0 0 0 8.132 8.599 8.219 8.219 0 0 0 6.58-3.422 1.462 1.462 0 0 1 1.93-.205l2.925 2.545c.732.672 1.083 1.433.527 2.223a13.893 13.893 0 0 1-12.284 6.522 16.233 16.233 0 1 1 0-32.436zm30.74 0c9.651 0 11.698 5.031 11.698 13.513v16.7c0 .813-.65 1.476-1.462 1.492h-2.281c-.556 0-.936-.205-1.346-1.082l-.877-2.077a13.688 13.688 0 0 1-9.74 3.89 9.886 9.886 0 0 1-10.47-10.617c.146-5.498 4.65-9.74 12.488-9.74 1.98.039 3.946.334 5.85.878 0-3.948-1.024-5.85-4.3-5.85-2.958.05-5.901.433-8.774 1.141-.994.351-1.608-.38-1.725-1.316l-.673-3.51a1.404 1.404 0 0 1 .994-1.872 39.455 39.455 0 0 1 10.617-1.55zm-156.067 0c9.681 0 11.7 5.031 11.7 13.513v16.7c0 .824-.669 1.492-1.492 1.492h-2.282c-.526 0-.936-.205-1.345-1.082l-.878-2.077a13.63 13.63 0 0 1-9.74 3.89 9.886 9.886 0 0 1-10.47-10.617c.176-5.498 4.68-9.74 12.547-9.74 1.98.035 3.947.33 5.85.878 0-3.948-.994-5.85-4.3-5.85-2.958.05-5.9.433-8.774 1.141-1.023.351-1.608-.38-1.755-1.316l-.672-3.51a1.404 1.404 0 0 1 .994-1.872 39.455 39.455 0 0 1 10.617-1.55zm235.635 4.105a13.893 13.893 0 0 1 4.021 10.256c0 .468 0 1.55-.146 2.018a1.55 1.55 0 0 1-1.462 1.404h-19.889a7.458 7.458 0 0 0 7.722 7.195c2.413.048 4.765-.76 6.639-2.281.76-.615 1.55-.673 2.018 0l2.632 3.48a1.316 1.316 0 0 1-.146 2.018 17.549 17.549 0 0 1-11.553 4.241A15.706 15.706 0 0 1 395.46 48.88a15.706 15.706 0 0 1 15.648-16.174 13.893 13.893 0 0 1 10.222 4.105zM388.615 17.41a1.52 1.52 0 0 1 1.492 1.462V62.92c0 .824-.668 1.492-1.492 1.492h-2.486c-.731 0-1.2-.614-1.462-1.492l-.82-2.427a13.308 13.308 0 0 1-10.119 4.65c-8.482 0-14.858-6.844-14.858-16.262a15.238 15.238 0 0 1 15.384-16.174c2.541.004 5.063.439 7.459 1.287v-15.12a1.58 1.58 0 0 1 1.462-1.463zm-284.64.146c.89 0 1.61.72 1.61 1.609v18.133l16.934-19.07a1.55 1.55 0 0 1 1.316-.672h6.727a1.404 1.404 0 0 1 1.053 2.398l-17.549 19.743 18.807 22.491a1.492 1.492 0 0 1-1.2 2.37h-7.311a1.609 1.609 0 0 1-1.229-.469l-17.549-21.643v20.473c0 .894-.715 1.622-1.608 1.638h-5.85a1.609 1.609 0 0 1-1.609-1.638v-43.9a1.58 1.58 0 0 1 1.61-1.463zm167.912-.731a1.14 1.14 0 0 1 1.112.731l20.678 45.188a1.2 1.2 0 0 1-1.14 1.755h-5.85a1.93 1.93 0 0 1-1.96-1.346l-3.276-7.253h-19.947l-3.305 7.253a2.018 2.018 0 0 1-1.93 1.346h-5.85a1.17 1.17 0 0 1-1.14-1.843l20.795-45.1a1.17 1.17 0 0 1 1.017-.73zm-127.169.585a1.52 1.52 0 0 1 1.492 1.462V35.34a11.904 11.904 0 0 1 7.897-2.633c9.885 0 12.576 6.844 12.576 14.624v15.56a1.55 1.55 0 0 1-1.492 1.492h-5.44a1.492 1.492 0 0 1-1.462-1.492V47.272c0-4.3-1.96-6.903-5.645-6.903a6.376 6.376 0 0 0-6.434 5.44v17.11c0 .878-.41 1.492-1.638 1.492h-5.294a1.52 1.52 0 0 1-1.463-1.492V18.872a1.58 1.58 0 0 1 1.463-1.462zm310.64 19.976a13.25 13.25 0 0 1 10.003-4.709c9.915 0 12.284 6.318 12.284 14.36V62.89a1.522 1.522 0 0 1-1.55 1.492h-5.381a1.492 1.492 0 0 1-1.463-1.492V46.804c0-4.007-1.491-6.493-5.381-6.493a5.85 5.85 0 0 0-5.85 3.217v19.304a1.52 1.52 0 0 1-1.462 1.491h-5.148a1.463 1.463 0 0 1-1.492-1.491V46.804c0-4.007-1.14-6.493-5.089-6.493a6.142 6.142 0 0 0-5.85 4.826V62.86a1.52 1.52 0 0 1-1.462 1.491h-5.44a1.52 1.52 0 0 1-1.462-1.491l-.293-27.99c0-.813.65-1.476 1.463-1.492h2.427a1.17 1.17 0 0 1 1.258.877l1.14 2.925a11.7 11.7 0 0 1 9.477-4.504 10.558 10.558 0 0 1 9.272 4.709zm-234.274-4.65c9.856 0 12.401 6.639 12.401 14.156v16.057a1.52 1.52 0 0 1-1.433 1.403h-5.557a1.492 1.492 0 0 1-1.492-1.491V46.804c0-4.007-1.609-6.493-5.352-6.493a6.844 6.844 0 0 0-6.727 4.826V62.86c0 1.14-.468 1.491-1.93 1.491h-4.973a1.55 1.55 0 0 1-1.491-1.491V34.87c0-.824.668-1.492 1.491-1.492h2.633c.6-.046 1.145.35 1.287.936l1.14 2.925a12.46 12.46 0 0 1 10.003-4.504zM341 50.109c-3.568 0-5.499 1.667-5.499 4.416a4.065 4.065 0 0 0 4.475 4.358 6.698 6.698 0 0 0 5.586-3.305v-4.533a12.372 12.372 0 0 0-4.562-.936zm-156.066 0c-3.569 0-5.499 1.667-5.499 4.416a4.095 4.095 0 0 0 4.504 4.358 6.64 6.64 0 0 0 5.557-3.305v-4.533a12.372 12.372 0 0 0-4.562-.936zm190.315-9.74a7.838 7.838 0 0 0-7.721 8.511c0 4.388 2.486 8.6 7.34 8.6a7.107 7.107 0 0 0 6.845-4.3V42.124a12.226 12.226 0 0 0-6.464-1.755zm-103.683-6.785h-.205l-6.58 14.77h13.482zm132.96 11.406h12.43a5.674 5.674 0 0 0-5.85-5.352 6.171 6.171 0 0 0-6.58 5.352z"/>
  <path fill="#14bf96" d="M4.826 16.971A10.412 10.412 0 0 0 0 25.161v31.587a10.412 10.412 0 0 0 4.826 8.19L33.167 80.79a10.968 10.968 0 0 0 9.652 0l28.37-15.853a10.412 10.412 0 0 0 4.826-8.189V25.16a10.412 10.412 0 0 0-4.826-8.189L42.848 1.119a10.968 10.968 0 0 0-9.652 0z"/>
  <path fill="#fff" d="M67.124 33.116c-15.736 0-27.493 13.044-27.493 29.043v.673h-3.159v-.673c0-15.999-11.7-28.985-27.552-29.043v2.925A28.985 28.985 0 0 0 27.64 63.3a30.622 30.622 0 0 0 10.5 1.871A31.119 31.119 0 0 0 48.726 63.3a29.015 29.015 0 0 0 18.69-27.26c-.147-.935-.206-1.93-.293-2.924z"/>
  <circle cx="38.022" cy="25.57" r="8.774" fill="#fff"/>
</svg>
